X:1
T:Title
%%score [ 1 2 3 4 ]
L:1/8
Q:1/4=120
M:6/8
K:F
V:1 treble nm="S."
V:2 treble nm="A."
V:3 treble-8 nm="T."
V:4 bass nm="B."
V:1
|:!f!"^/" F!pp!EF GGA |"^Which is the properest day to drink?" B2 A G3 | AGA B2 A | %3
w: Which is the pro- per- est|day to drink?|Sat- ur- day, Sun- day,|
"^Thomas Arne""^(1710-78)" A3 G3 :: z6 | z6 | z6 | z6 :|!f! F>EF G2 A | B2 c d2 c | BAG c2 B | %11
w: Mon- day?|||||Tell me but yours, I'll|men- tion my day,|Let us but fix on|
 A3 G2 z |:!p! F>EF G2 A | B2 c d2 c | BAG c2 B | A3 G2 z | z3 |!mp! F3 | z3!mf! F3 | %19
w: some day,|Tell me but yours, I'll|men- tion my day,|Let us but fix on|some day,||Which?|which?|
!f! c>cc c2 c | c3 C2 z | z6 | z3!f! f2 e | f2 c z3 | z6 |!f! f2 c d2 c | f2 c d2 c | BBA A2 G | %28
w: Let us but fix on|some day.||Bra- vo,|bra- vo!||Tues- day, Wednes- day,|Thurs- day, Fri- day,|Sat- ur- day, Sund- day,|
 A3 A2 z |!mf! c2 C z3 | c2 C z3 | cCC z3 | c3 c2 z |!f! f2 c d2 c | f2 c d2 c | BBA A2 G | %36
w: Mon- day,|Tues- day,|Thurs- day,|Sat- ur- day,|Mon- day,|Tues- day, Wednes- day,|Thurs- day, Fri- day,|Sat- ur- day, Sun- day,|
 A3 A3 :| %37
w: Mon- day.|
V:2
|:!f!"^/" A!pp!GF FEF | G2 F E3 | FEF G2 F | F3 E3 :: z6 | z6 | z6 | z6 :|!f! A>GF E2 F | %9
w: Which is the pro- per- est|day to drink?|Sat- ur- day, Sun- day,|Mon- day?|||||Tell me but yours, I'll|
 G2 A B2 A | EFG F2 E | F3 C2 z |:!p! A>GF E2 F | G2 A B2 A | EFG F2 E | F3 C2 z |!p! F3 | z3 | %18
w: men- tion my day,|Let us but fix on|some day,|Tell me but yours, I'll|men- tion my day,|Let us but fix on|some day,|Which?||
!mp! C3 z3 |!f! F>GF E2 G | F3 F2 z | z3!mf! F2 E | F2 C z3 |"^cresc." F>EF A2 =B | c3 C3 | %25
w: which?|Let us but fix on|some day.|Bra- vo!|bra- vo!|Why should I name but|one day?|
!f! F2 A !courtesy!_B2 A | c2 A B2 A | GCF F2 E | F3 F2 z |!p! A>GF FEF | G2 F E3 | %31
w: Tues- day, Wednes- day,|Thurs- day, Fri- day,|Sat- ur- day, Sun- day,|Mon- day,|Which is the pro- per- est|day to drink?|
!<(! FGA B2 A!<)! | A3 G2 z |!f! F2 A B2 A | c2 A B2 A | GCF F2 E | F3 F3 :| %37
w: Sat- ur- day, Sun- day,|Mon- day,|Tues- day, Wednes- day,|Thurs- day, Fri- day,|Sat- ur- day, Sun- day,|Mon- day.|
V:3
|: z6 | z6 | z6 | z6 ::!f!"^/" A>!pp!Bc dBA | (GA)B c3 | A>GA B2 G | A3 A3 :| z3!f! c3 | z6 | %10
w: ||||Each is the pro- per- est|day * I think!|Why should I name but|one day?|Why,||
 ccc c2 c | c3 C2 z |: z3!p! c3 | z3 f3 | ccc c2 c | c3 C2 z |!p! A>"^cresc."Bc | dBA | %18
w: why should I name but|one day?|Why,|why,|why should I name but|one day?|Each is the|pro- per- est|
 (GA)B c2 z |!f! A>GA B2 G | A3 A2 z |!mp! c2"^cresc." A d2 B | c2 A d2 B | c>BA f2 d | e3 c3 | %25
w: day * I think!|Why should I name but|one day?|Tues- day, Wednes- day,|Thurs- day, Fri- day,|Sat- ur- day, Sun- day,|Mon- day,|
!f! A2 c f2 F | A2 c f2 F | ccc c2 c | c3 c2 z |!p! F>GA AGA | B2 A G3 |!<(! AGF G2 F!<)! | %32
w: Tues- day, Wednes- day,|Thurs- day, Fri- day,|Sat- ur- day, Sun- day,|Mon- day,|Which is the pro- per- est|day to drink?|Sat- ur- day, Sun- day,|
 F3 E2 z |!f! A2 c f2 c | A2 c f2 c | ccc c2 c | c3 c3 :| %37
w: Mon- day,|Tues- day, Wednes- day,|Thurs- day, Fri- day,|Sat- ur- day, Sun- day,|Mon- day.|
V:4
|: z6 | z6 | z6 | z6 ::!f!"^/" F,>!pp!G,A, B,G,F, | (E,F,)G, A,3 | F,>E,F, G,2 E, | F,3 F,3 :| z6 | %9
w: ||||Each is the pro- per- est|day * I think!|Why should I name but|one day?||
 z3!f! F,3 | G,F,E, A,2 G, | F,3 E,2 z |:"^This edition  Andrew Sims 2015" z3!p! C,3 | z3 F,3 | %14
w: Why,|why should I name but|one day?|Why,|why,|
 G,F,E, A,2 G, | F,3 E,2 z |!p! F,>"^cresc."G,A, | B,G,F, | (E,F,)G, A,2 z |!f! F,>E,F, G,2 E, | %20
w: why should I name but|one day?|Each is the|pro- per- est|day * I think!|Why should I name but|
 F,3 F,2 z |!mp! A,2"^cresc." F, B,2 G, | A,2 F, B,2 G, | A,>G,F, D,2 G, | G,3 E,3 | %25
w: one day?|Tues- day, Wednes- day,|Thurs- day, Fri- day,|Sat- ur- day, Sun- day,|Mon- day,|
!f! F,2 F, F,2 F, | F,2 F, F,2 F, | E,E,F, C,2 C, | F,3 F,2 z | z3!mf! C2 C, | z3 C2 C, | %31
w: Tues- day, Wednes- day,|Thurs- day, Fri- day,|Sat- ur- day, Sun- day,|Mon- day,|Wednes- day,|Fri- day,|
 z3 C2 C, | C3 C,2 z |!f! A,2 F, F,2 F, | F,2 F, F,2 F, | E,E,F, C,2 C, | F,3 F,3 :| %37
w: Sun- day,|Mon- day,|Tues- day, Wednes- day,|Thurs- day, Fri- day,|Sat- ur- day, Sun- day,|Mon- day.|

